Apricity Icons/24/panel/applications-email-panel.svg

<svg xmlns="http://www.w3.org/2000/svg" width="24" height="24"><defs><style id="current-color-scheme" type="text/css"></style></defs><path d="M6 6c-1.108 0-2 .892-2 2v8c0 1.108.892 2 2 2h12c1.108 0 2-.892 2-2V8c0-1.108-.892-2-2-2H6zm0 2l6 3 6-3v2l-6 3-6-3V8z" fill="currentColor" color="#dfdfdf"/></svg>

<svg xmlns="http://www.w3.org/2000/svg" width="24" height="24" version="1.1">
 <defs>
  <style id="current-color-scheme" type="text/css">
   .ColorScheme-Text { color:#dfdfdf; } .ColorScheme-Highlight { color:#4285f4; }
  </style>
 </defs>
 <path style="fill:currentColor" class="ColorScheme-Text" d="M 6,6 C 4.892,6 4,6.892 4,8.0000001 L 4,16 c 0,1.108 0.892,2 2,2 l 12,0 c 1.108,0 2,-0.892 2,-2 l 0,-7.9999999 c 0,-1.108 -0.892,-2 -2,-2 l -12,0 z M 6,8.0000001 12,11 18,8 18,10 12,13 6,10 6,8 Z"/>
</svg>
